report_00007_2020-12-11T15:55:29.892Z/interactive/comparison/line/7_vs_8.svg

<svg width="640" height="500" xmlns="http://www.w3.org/2000/svg" xmlns:xlink="http://www.w3.org/1999/xlink"><path fill="#fff" d="M0 0h640v500H0z"/><defs><path id="d" stroke-width=".222" stroke="currentColor" d="M-1-1h2v2h-2z"/><path id="b" stroke-width=".222" stroke="currentColor" d="M0-1.33l-1.33 2h2.66z"/><path id="f" stroke-width=".222" stroke="currentColor" d="M0 1.33L1.265.411.782-1.067l-1.564-.009-.483 1.487z"/><use xlink:href="#b" id="c" stroke="currentColor" transform="rotate(180)"/><use xlink:href="#d" id="e" stroke="currentColor" transform="rotate(45)"/><circle id="a" stroke-width=".222" stroke="currentColor" cx="0" cy="0" r="1"/></defs><g fill="none" color="#000" stroke="currentColor"><path stroke="#000" d="M62.2 386.7h9m543.8 0h-9"/><text transform="translate(53.9 390.6)" stroke="none" fill="#000" font-family="Arial" font-size="12" text-anchor="end"><tspan>1850</tspan></text></g><g fill="none" color="#000" stroke="currentColor"><path stroke="#000" d="M62.2 339.5h9m543.8 0h-9"/><text transform="translate(53.9 343.4)" stroke="none" fill="#000" font-family="Arial" font-size="12" text-anchor="end"><tspan>1900</tspan></text></g><g fill="none" color="#000" stroke="currentColor"><path stroke="#000" d="M62.2 292.3h9m543.8 0h-9"/><text transform="translate(53.9 296.2)" stroke="none" fill="#000" font-family="Arial" font-size="12" text-anchor="end"><tspan>1950</tspan></text></g><g fill="none" color="#000" stroke="currentColor"><path stroke="#000" d="M62.2 245.1h9m543.8 0h-9"/><text transform="translate(53.9 249)" stroke="none" fill="#000" font-family="Arial" font-size="12" text-anchor="end"><tspan>2000</tspan></text></g><g fill="none" color="#000" stroke="currentColor"><path stroke="#000" d="M62.2 197.8h9m543.8 0h-9"/><text transform="translate(53.9 201.7)" stroke="none" fill="#000" font-family="Arial" font-size="12" text-anchor="end"><tspan>2050</tspan></text></g><g fill="none" color="#000" stroke="currentColor"><path stroke="#000" d="M62.2 150.6h9m543.8 0h-9"/><text transform="translate(53.9 154.5)" stroke="none" fill="#000" font-family="Arial" font-size="12" text-anchor="end"><tspan>2100</tspan></text></g><g fill="none" color="#000" stroke="currentColor"><path stroke="#000" d="M62.2 103.4h9m543.8 0h-9"/><text transform="translate(53.9 107.3)" stroke="none" fill="#000" font-family="Arial" font-size="12" text-anchor="end"><tspan>2150</tspan></text></g><g fill="none" color="#000" stroke="currentColor"><path stroke="#000" d="M62.2 56.1h9m543.8 0h-9"/><text transform="translate(53.9 60)" stroke="none" fill="#000" font-family="Arial" font-size="12" text-anchor="end"><tspan>2200</tspan></text></g><g fill="none" color="#000" stroke="currentColor"><path stroke="#000" d="M62.2 428v-9m0-400.9v9"/><text transform="translate(62.2 449.9)" stroke="none" fill="#000" font-family="Arial" font-size="12" text-anchor="middle"><tspan>0</tspan></text></g><g fill="none" color="#000" stroke="currentColor"><path stroke="#000" d="M118 428v-9m0-400.9v9"/><text transform="translate(118 449.9)" stroke="none" fill="#000" font-family="Arial" font-size="12" text-anchor="middle"><tspan>10</tspan></text></g><g fill="none" color="#000" stroke="currentColor"><path stroke="#000" d="M173.9 428v-9m0-400.9v9"/><text transform="translate(173.9 449.9)" stroke="none" fill="#000" font-family="Arial" font-size="12" text-anchor="middle"><tspan>20</tspan></text></g><g fill="none" color="#000" stroke="currentColor"><path stroke="#000" d="M229.7 428v-9m0-400.9v9"/><text transform="translate(229.7 449.9)" stroke="none" fill="#000" font-family="Arial" font-size="12" text-anchor="middle"><tspan>30</tspan></text></g><g fill="none" color="#000" stroke="currentColor"><path stroke="#000" d="M285.6 428v-9m0-400.9v9"/><text transform="translate(285.6 449.9)" stroke="none" fill="#000" font-family="Arial" font-size="12" text-anchor="middle"><tspan>40</tspan></text></g><g fill="none" color="#000" stroke="currentColor"><path stroke="#000" d="M341.4 428v-9m0-400.9v9"/><text transform="translate(341.4 449.9)" stroke="none" fill="#000" font-family="Arial" font-size="12" text-anchor="middle"><tspan>50</tspan></text></g><g fill="none" color="#000" stroke="currentColor"><path stroke="#000" d="M397.2 428v-9m0-400.9v9"/><text transform="translate(397.2 449.9)" stroke="none" fill="#000" font-family="Arial" font-size="12" text-anchor="middle"><tspan>60</tspan></text></g><g fill="none" color="#000" stroke="currentColor"><path stroke="#000" d="M453.1 428v-9m0-400.9v9"/><text transform="translate(453.1 449.9)" stroke="none" fill="#000" font-family="Arial" font-size="12" text-anchor="middle"><tspan>70</tspan></text></g><g fill="none" color="#000" stroke="currentColor"><path stroke="#000" d="M508.9 428v-9m0-400.9v9"/><text transform="translate(508.9 449.9)" stroke="none" fill="#000" font-family="Arial" font-size="12" text-anchor="middle"><tspan>80</tspan></text></g><g fill="none" color="#000" stroke="currentColor"><path stroke="#000" d="M564.7 428v-9m0-400.9v9"/><text transform="translate(564.7 449.9)" stroke="none" fill="#000" font-family="Arial" font-size="12" text-anchor="middle"><tspan>90</tspan></text></g><path stroke="#000" d="M62.2 18.1V428H615V18.1H62.2z" fill="none" color="#000"/><text transform="translate(279.8 467.9)" stroke="none" fill="#000" font-family="Arial" font-size="12" text-anchor="end" color="#000"><tspan>pages+cached+noexternal+nosvg</tspan></text><path stroke="#9400D3" d="M288.1 464h42.2M62.2 418.4l5.6.1 5.6-3.2 5.6 1.5 5.5.8 5.6 1.1 5.6-5.2 5.6-.1 5.6 2.5 5.6-1.1 5.5.6L123.6 26l5.6 169.1 5.6 223.5 5.6-4.7 5.6.3 5.5 3.4 5.6.2 5.6-1.5 5.6-212.8 5.6 211.8 5.6 1.4 5.5-.2 5.6-1.2 5.6 2.1 5.6-1.2 5.6-1.6 5.6 1.6 5.5 1.4 5.6.3 5.6-2.7 5.6-.5 5.6.1 5.6 4.1 5.6-3.8 5.5-215.7 5.6.9 5.6 214.1 5.6 1.6 5.6.3 5.6-.8 5.5 1.2 5.6-.9 5.6-2.3 5.6 1.1 5.6 2.2 5.6 1.1 5.5-1.7 5.6-1.4 5.6-2.7 5.6-212.7 5.6 215.5 5.6 1.8 5.5-2.1 5.6 1 5.6 4.2 5.6-3.3 5.6-4.2 5.6 3.3 5.5 2.3 5.6-6.2 5.6 6.2 5.6-2.2 5.6 1.9 5.6-.4 5.5-.5 5.6 1.3 5.6-221.5 5.6 220.4 5.6.2 5.6.7 5.6.9 5.5-2.9 5.6-1.3 5.6 1.4 5.6.3 5.6 2.9 5.6-3.7 5.5-1.9 5.6 3.9 5.6-2.4 5.6 3.2 5.6.5 5.6-.6 5.5-1.8 5.6.2 5.6-2.1 5.6.9 5.6-.1 5.6.1 5.5 3.3 5.6-.9 5.6-2.1 5.6 2.5 5.6-5 5.6 2.3 5.5 2.2 5.6-1 5.6-.8 5.6-.7" fill="none" color="#000"/><text transform="translate(279.8 485.9)" stroke="none" fill="#000" font-family="Arial" font-size="12" text-anchor="end" color="#000"><tspan>pages+cached+noexternal+noimg</tspan></text><path stroke="#009E73" d="M288.1 482h42.2M62.2 416.8l5.6 1.2 5.6-1.9 5.6.4 5.5-213 5.6-2.3 5.6-1 5.6 218.8 5.6-217.1h5.6l5.5-.3 5.6 214.9 5.6-146.6 5.6-68.1 5.6 214.4 5.6-216.8 5.5 1.4 5.6 71 5.6-71.2 5.6-.3 5.6 216.7 5.6-217.9 5.5 218.4 5.6-216.5 5.6 218.2 5.6-218.4 5.6 70.4L213 204l5.5-3.8 5.6 2.1 5.6.9 5.6-6 5.6 222.5 5.6-149.8 5.6-63.4 5.5 209.8 5.6-218.6 5.6 75.9 5.6-72.4 5.6-1.2 5.6 216.9 5.5-2.4 5.6 1.7 5.6-213.4 5.6 71.7 5.6 142.7 5.6-143.9 5.5-71.5h5.6l5.6 213.7 5.6-210.6 5.6 212.9 5.6-146.7 5.5-72.1 5.6 221.1 5.6-218.8 5.6 2 5.6-2.7 5.6 217.2 5.5-145.1 5.6-70.8 5.6-2.5 5.6 219.1 5.6-1.1 5.6-217.7 5.5 218.5 5.6-142.6 5.6-71.9 5.6 212.9 5.6-217.6 5.6 73.6 5.6-69.4 5.5 215.9 5.6-2.2 5.6-214.5 5.6 217.7 5.6-214.7 5.6-5 5.5 70.6 5.6 147.7 5.6-147.7 5.6-70.2 5.6 216.5 5.6-143.8 5.5 144.3 5.6 2.1 5.6-221.5 5.6 3.1 5.6 214.2 5.6 1.7 5.5-214.3 5.6-1.7 5.6 214.7 5.6-216.8 5.6 1.1 5.6-.3 5.5 217.7 5.6-217.1 5.6 75.5 5.6-75" fill="none" color="#000"/><text transform="translate(579.3 467.9)" stroke="none" fill="#000" font-family="Arial" font-size="12" text-anchor="end" color="#000"><tspan>score p10=3785</tspan></text><path stroke="#56B4E9" d="M587.6 464h42.2" fill="none" color="#000"/><g><text transform="translate(579.3 485.9)" stroke="none" fill="#000" font-family="Arial" font-size="12" text-anchor="end" color="#000"><tspan>score median=7300</tspan></text><path stroke="#E69F00" d="M587.6 482h42.2" fill="none" color="#000"/></g><g fill="none" color="#000" stroke="currentColor"><path stroke="#000" d="M62.2 18.1V428H615V18.1H62.2z"/></g></svg>

<?xml version="1.0" encoding="utf-8"  standalone="no"?>
<svg 
 width="640" height="500"
 viewBox="0 0 640 500"
 xmlns="http://www.w3.org/2000/svg"
 xmlns:xlink="http://www.w3.org/1999/xlink"
>

<title>Gnuplot</title>
<desc>Produced by GNUPLOT 5.4 patchlevel 0 </desc>

<g id="gnuplot_canvas">

<rect x="0" y="0" width="640" height="500" fill="#ffffff"/>
<defs>

	<circle id='gpDot' r='0.5' stroke-width='0.5' stroke='currentColor'/>
	<path id='gpPt0' stroke-width='0.222' stroke='currentColor' d='M-1,0 h2 M0,-1 v2'/>
	<path id='gpPt1' stroke-width='0.222' stroke='currentColor' d='M-1,-1 L1,1 M1,-1 L-1,1'/>
	<path id='gpPt2' stroke-width='0.222' stroke='currentColor' d='M-1,0 L1,0 M0,-1 L0,1 M-1,-1 L1,1 M-1,1 L1,-1'/>
	<rect id='gpPt3' stroke-width='0.222' stroke='currentColor' x='-1' y='-1' width='2' height='2'/>
	<rect id='gpPt4' stroke-width='0.222' stroke='currentColor' fill='currentColor' x='-1' y='-1' width='2' height='2'/>
	<circle id='gpPt5' stroke-width='0.222' stroke='currentColor' cx='0' cy='0' r='1'/>
	<use xlink:href='#gpPt5' id='gpPt6' fill='currentColor' stroke='none'/>
	<path id='gpPt7' stroke-width='0.222' stroke='currentColor' d='M0,-1.33 L-1.33,0.67 L1.33,0.67 z'/>
	<use xlink:href='#gpPt7' id='gpPt8' fill='currentColor' stroke='none'/>
	<use xlink:href='#gpPt7' id='gpPt9' stroke='currentColor' transform='rotate(180)'/>
	<use xlink:href='#gpPt9' id='gpPt10' fill='currentColor' stroke='none'/>
	<use xlink:href='#gpPt3' id='gpPt11' stroke='currentColor' transform='rotate(45)'/>
	<use xlink:href='#gpPt11' id='gpPt12' fill='currentColor' stroke='none'/>
	<path id='gpPt13' stroke-width='0.222' stroke='currentColor' d='M0,1.330 L1.265,0.411 L0.782,-1.067 L-0.782,-1.076 L-1.265,0.411 z'/>
	<use xlink:href='#gpPt13' id='gpPt14' fill='currentColor' stroke='none'/>
	<filter id='textbox' filterUnits='objectBoundingBox' x='0' y='0' height='1' width='1'>
	  <feFlood flood-color='#FFFFFF' flood-opacity='1' result='bgnd'/>
	  <feComposite in='SourceGraphic' in2='bgnd' operator='atop'/>
	</filter>
	<filter id='greybox' filterUnits='objectBoundingBox' x='0' y='0' height='1' width='1'>
	  <feFlood flood-color='lightgrey' flood-opacity='1' result='grey'/>
	  <feComposite in='SourceGraphic' in2='grey' operator='atop'/>
	</filter>
</defs>
<g fill="none" color="#FFFFFF" stroke="black" stroke-width="1.00" stroke-linecap="butt" stroke-linejoin="miter">
</g>
<g fill="none" color="black" stroke="currentColor" stroke-width="1.00" stroke-linecap="butt" stroke-linejoin="miter">
	<path stroke='black'  d='M62.2,386.7 L71.2,386.7 M615.0,386.7 L606.0,386.7  '/>	<g transform="translate(53.9,390.6)" stroke="none" fill="black" font-family="Arial" font-size="12.00"  text-anchor="end">
		<text><tspan font-family="Arial" > 1850</tspan></text>
	</g>
</g>
<g fill="none" color="black" stroke="currentColor" stroke-width="1.00" stroke-linecap="butt" stroke-linejoin="miter">
	<path stroke='black'  d='M62.2,339.5 L71.2,339.5 M615.0,339.5 L606.0,339.5  '/>	<g transform="translate(53.9,343.4)" stroke="none" fill="black" font-family="Arial" font-size="12.00"  text-anchor="end">
		<text><tspan font-family="Arial" > 1900</tspan></text>
	</g>
</g>
<g fill="none" color="black" stroke="currentColor" stroke-width="1.00" stroke-linecap="butt" stroke-linejoin="miter">
	<path stroke='black'  d='M62.2,292.3 L71.2,292.3 M615.0,292.3 L606.0,292.3  '/>	<g transform="translate(53.9,296.2)" stroke="none" fill="black" font-family="Arial" font-size="12.00"  text-anchor="end">
		<text><tspan font-family="Arial" > 1950</tspan></text>
	</g>
</g>
<g fill="none" color="black" stroke="currentColor" stroke-width="1.00" stroke-linecap="butt" stroke-linejoin="miter">
	<path stroke='black'  d='M62.2,245.1 L71.2,245.1 M615.0,245.1 L606.0,245.1  '/>	<g transform="translate(53.9,249.0)" stroke="none" fill="black" font-family="Arial" font-size="12.00"  text-anchor="end">
		<text><tspan font-family="Arial" > 2000</tspan></text>
	</g>
</g>
<g fill="none" color="black" stroke="currentColor" stroke-width="1.00" stroke-linecap="butt" stroke-linejoin="miter">
	<path stroke='black'  d='M62.2,197.8 L71.2,197.8 M615.0,197.8 L606.0,197.8  '/>	<g transform="translate(53.9,201.7)" stroke="none" fill="black" font-family="Arial" font-size="12.00"  text-anchor="end">
		<text><tspan font-family="Arial" > 2050</tspan></text>
	</g>
</g>
<g fill="none" color="black" stroke="currentColor" stroke-width="1.00" stroke-linecap="butt" stroke-linejoin="miter">
	<path stroke='black'  d='M62.2,150.6 L71.2,150.6 M615.0,150.6 L606.0,150.6  '/>	<g transform="translate(53.9,154.5)" stroke="none" fill="black" font-family="Arial" font-size="12.00"  text-anchor="end">
		<text><tspan font-family="Arial" > 2100</tspan></text>
	</g>
</g>
<g fill="none" color="black" stroke="currentColor" stroke-width="1.00" stroke-linecap="butt" stroke-linejoin="miter">
	<path stroke='black'  d='M62.2,103.4 L71.2,103.4 M615.0,103.4 L606.0,103.4  '/>	<g transform="translate(53.9,107.3)" stroke="none" fill="black" font-family="Arial" font-size="12.00"  text-anchor="end">
		<text><tspan font-family="Arial" > 2150</tspan></text>
	</g>
</g>
<g fill="none" color="black" stroke="currentColor" stroke-width="1.00" stroke-linecap="butt" stroke-linejoin="miter">
	<path stroke='black'  d='M62.2,56.1 L71.2,56.1 M615.0,56.1 L606.0,56.1  '/>	<g transform="translate(53.9,60.0)" stroke="none" fill="black" font-family="Arial" font-size="12.00"  text-anchor="end">
		<text><tspan font-family="Arial" > 2200</tspan></text>
	</g>
</g>
<g fill="none" color="black" stroke="currentColor" stroke-width="1.00" stroke-linecap="butt" stroke-linejoin="miter">
	<path stroke='black'  d='M62.2,428.0 L62.2,419.0 M62.2,18.1 L62.2,27.1  '/>	<g transform="translate(62.2,449.9)" stroke="none" fill="black" font-family="Arial" font-size="12.00"  text-anchor="middle">
		<text><tspan font-family="Arial" > 0</tspan></text>
	</g>
</g>
<g fill="none" color="black" stroke="currentColor" stroke-width="1.00" stroke-linecap="butt" stroke-linejoin="miter">
	<path stroke='black'  d='M118.0,428.0 L118.0,419.0 M118.0,18.1 L118.0,27.1  '/>	<g transform="translate(118.0,449.9)" stroke="none" fill="black" font-family="Arial" font-size="12.00"  text-anchor="middle">
		<text><tspan font-family="Arial" > 10</tspan></text>
	</g>
</g>
<g fill="none" color="black" stroke="currentColor" stroke-width="1.00" stroke-linecap="butt" stroke-linejoin="miter">
	<path stroke='black'  d='M173.9,428.0 L173.9,419.0 M173.9,18.1 L173.9,27.1  '/>	<g transform="translate(173.9,449.9)" stroke="none" fill="black" font-family="Arial" font-size="12.00"  text-anchor="middle">
		<text><tspan font-family="Arial" > 20</tspan></text>
	</g>
</g>
<g fill="none" color="black" stroke="currentColor" stroke-width="1.00" stroke-linecap="butt" stroke-linejoin="miter">
	<path stroke='black'  d='M229.7,428.0 L229.7,419.0 M229.7,18.1 L229.7,27.1  '/>	<g transform="translate(229.7,449.9)" stroke="none" fill="black" font-family="Arial" font-size="12.00"  text-anchor="middle">
		<text><tspan font-family="Arial" > 30</tspan></text>
	</g>
</g>
<g fill="none" color="black" stroke="currentColor" stroke-width="1.00" stroke-linecap="butt" stroke-linejoin="miter">
	<path stroke='black'  d='M285.6,428.0 L285.6,419.0 M285.6,18.1 L285.6,27.1  '/>	<g transform="translate(285.6,449.9)" stroke="none" fill="black" font-family="Arial" font-size="12.00"  text-anchor="middle">
		<text><tspan font-family="Arial" > 40</tspan></text>
	</g>
</g>
<g fill="none" color="black" stroke="currentColor" stroke-width="1.00" stroke-linecap="butt" stroke-linejoin="miter">
	<path stroke='black'  d='M341.4,428.0 L341.4,419.0 M341.4,18.1 L341.4,27.1  '/>	<g transform="translate(341.4,449.9)" stroke="none" fill="black" font-family="Arial" font-size="12.00"  text-anchor="middle">
		<text><tspan font-family="Arial" > 50</tspan></text>
	</g>
</g>
<g fill="none" color="black" stroke="currentColor" stroke-width="1.00" stroke-linecap="butt" stroke-linejoin="miter">
	<path stroke='black'  d='M397.2,428.0 L397.2,419.0 M397.2,18.1 L397.2,27.1  '/>	<g transform="translate(397.2,449.9)" stroke="none" fill="black" font-family="Arial" font-size="12.00"  text-anchor="middle">
		<text><tspan font-family="Arial" > 60</tspan></text>
	</g>
</g>
<g fill="none" color="black" stroke="currentColor" stroke-width="1.00" stroke-linecap="butt" stroke-linejoin="miter">
	<path stroke='black'  d='M453.1,428.0 L453.1,419.0 M453.1,18.1 L453.1,27.1  '/>	<g transform="translate(453.1,449.9)" stroke="none" fill="black" font-family="Arial" font-size="12.00"  text-anchor="middle">
		<text><tspan font-family="Arial" > 70</tspan></text>
	</g>
</g>
<g fill="none" color="black" stroke="currentColor" stroke-width="1.00" stroke-linecap="butt" stroke-linejoin="miter">
	<path stroke='black'  d='M508.9,428.0 L508.9,419.0 M508.9,18.1 L508.9,27.1  '/>	<g transform="translate(508.9,449.9)" stroke="none" fill="black" font-family="Arial" font-size="12.00"  text-anchor="middle">
		<text><tspan font-family="Arial" > 80</tspan></text>
	</g>
</g>
<g fill="none" color="black" stroke="currentColor" stroke-width="1.00" stroke-linecap="butt" stroke-linejoin="miter">
	<path stroke='black'  d='M564.7,428.0 L564.7,419.0 M564.7,18.1 L564.7,27.1  '/>	<g transform="translate(564.7,449.9)" stroke="none" fill="black" font-family="Arial" font-size="12.00"  text-anchor="middle">
		<text><tspan font-family="Arial" > 90</tspan></text>
	</g>
</g>
<g fill="none" color="black" stroke="currentColor" stroke-width="1.00" stroke-linecap="butt" stroke-linejoin="miter">
</g>
<g fill="none" color="black" stroke="currentColor" stroke-width="1.00" stroke-linecap="butt" stroke-linejoin="miter">
	<path stroke='black'  d='M62.2,18.1 L62.2,428.0 L615.0,428.0 L615.0,18.1 L62.2,18.1 Z  '/></g>
<g fill="none" color="black" stroke="currentColor" stroke-width="1.00" stroke-linecap="butt" stroke-linejoin="miter">
</g>
	<g id="gnuplot_plot_1" ><title>pages+cached+noexternal+nosvg</title>
<g fill="none" color="black" stroke="currentColor" stroke-width="1.00" stroke-linecap="butt" stroke-linejoin="miter">
	<g transform="translate(279.8,467.9)" stroke="none" fill="black" font-family="Arial" font-size="12.00"  text-anchor="end">
		<text><tspan font-family="Arial" >pages+cached+noexternal+nosvg</tspan></text>
	</g>
</g>
<g fill="none" color="black" stroke="currentColor" stroke-width="1.00" stroke-linecap="butt" stroke-linejoin="miter">
	<path stroke='rgb(148,   0, 211)'  d='M288.1,464.0 L330.3,464.0 M62.2,418.4 L67.8,418.5 L73.4,415.3 L79.0,416.8 L84.5,417.6 L90.1,418.7
		L95.7,413.5 L101.3,413.4 L106.9,415.9 L112.5,414.8 L118.0,415.4 L123.6,26.0 L129.2,195.1 L134.8,418.6
		L140.4,413.9 L146.0,414.2 L151.5,417.6 L157.1,417.8 L162.7,416.3 L168.3,203.5 L173.9,415.3 L179.5,416.7
		L185.0,416.5 L190.6,415.3 L196.2,417.4 L201.8,416.2 L207.4,414.6 L213.0,416.2 L218.5,417.6 L224.1,417.9
		L229.7,415.2 L235.3,414.7 L240.9,414.8 L246.5,418.9 L252.1,415.1 L257.6,199.4 L263.2,200.3 L268.8,414.4
		L274.4,416.0 L280.0,416.3 L285.6,415.5 L291.1,416.7 L296.7,415.8 L302.3,413.5 L307.9,414.6 L313.5,416.8
		L319.1,417.9 L324.6,416.2 L330.2,414.8 L335.8,412.1 L341.4,199.4 L347.0,414.9 L352.6,416.7 L358.1,414.6
		L363.7,415.6 L369.3,419.8 L374.9,416.5 L380.5,412.3 L386.1,415.6 L391.6,417.9 L397.2,411.7 L402.8,417.9
		L408.4,415.7 L414.0,417.6 L419.6,417.2 L425.1,416.7 L430.7,418.0 L436.3,196.5 L441.9,416.9 L447.5,417.1
		L453.1,417.8 L458.7,418.7 L464.2,415.8 L469.8,414.5 L475.4,415.9 L481.0,416.2 L486.6,419.1 L492.2,415.4
		L497.7,413.5 L503.3,417.4 L508.9,415.0 L514.5,418.2 L520.1,418.7 L525.7,418.1 L531.2,416.3 L536.8,416.5
		L542.4,414.4 L548.0,415.3 L553.6,415.2 L559.2,415.3 L564.7,418.6 L570.3,417.7 L575.9,415.6 L581.5,418.1
		L587.1,413.1 L592.7,415.4 L598.2,417.6 L603.8,416.6 L609.4,415.8 L615.0,415.1  '/></g>
	</g>
	<g id="gnuplot_plot_2" ><title>pages+cached+noexternal+noimg</title>
<g fill="none" color="black" stroke="currentColor" stroke-width="1.00" stroke-linecap="butt" stroke-linejoin="miter">
	<g transform="translate(279.8,485.9)" stroke="none" fill="black" font-family="Arial" font-size="12.00"  text-anchor="end">
		<text><tspan font-family="Arial" >pages+cached+noexternal+noimg</tspan></text>
	</g>
</g>
<g fill="none" color="black" stroke="currentColor" stroke-width="1.00" stroke-linecap="butt" stroke-linejoin="miter">
	<path stroke='rgb(  0, 158, 115)'  d='M288.1,482.0 L330.3,482.0 M62.2,416.8 L67.8,418.0 L73.4,416.1 L79.0,416.5 L84.5,203.5 L90.1,201.2
		L95.7,200.2 L101.3,419.0 L106.9,201.9 L112.5,201.9 L118.0,201.6 L123.6,416.5 L129.2,269.9 L134.8,201.8
		L140.4,416.2 L146.0,199.4 L151.5,200.8 L157.1,271.8 L162.7,200.6 L168.3,200.3 L173.9,417.0 L179.5,199.1
		L185.0,417.5 L190.6,201.0 L196.2,419.2 L201.8,200.8 L207.4,271.2 L213.0,204.0 L218.5,200.2 L224.1,202.3
		L229.7,203.2 L235.3,197.2 L240.9,419.7 L246.5,269.9 L252.1,206.5 L257.6,416.3 L263.2,197.7 L268.8,273.6
		L274.4,201.2 L280.0,200.0 L285.6,416.9 L291.1,414.5 L296.7,416.2 L302.3,202.8 L307.9,274.5 L313.5,417.2
		L319.1,273.3 L324.6,201.8 L330.2,201.8 L335.8,415.5 L341.4,204.9 L347.0,417.8 L352.6,271.1 L358.1,199.0
		L363.7,420.1 L369.3,201.3 L374.9,203.3 L380.5,200.6 L386.1,417.8 L391.6,272.7 L397.2,201.9 L402.8,199.4
		L408.4,418.5 L414.0,417.4 L419.6,199.7 L425.1,418.2 L430.7,275.6 L436.3,203.7 L441.9,416.6 L447.5,199.0
		L453.1,272.6 L458.7,203.2 L464.2,419.1 L469.8,416.9 L475.4,202.4 L481.0,420.1 L486.6,205.4 L492.2,200.4
		L497.7,271.0 L503.3,418.7 L508.9,271.0 L514.5,200.8 L520.1,417.3 L525.7,273.5 L531.2,417.8 L536.8,419.9
		L542.4,198.4 L548.0,201.5 L553.6,415.7 L559.2,417.4 L564.7,203.1 L570.3,201.4 L575.9,416.1 L581.5,199.3
		L587.1,200.4 L592.7,200.1 L598.2,417.8 L603.8,200.7 L609.4,276.2 L615.0,201.2  '/></g>
	</g>
	<g id="gnuplot_plot_3" ><title>score p10=3785</title>
<g fill="none" color="black" stroke="currentColor" stroke-width="1.00" stroke-linecap="butt" stroke-linejoin="miter">
	<g transform="translate(579.3,467.9)" stroke="none" fill="black" font-family="Arial" font-size="12.00"  text-anchor="end">
		<text><tspan font-family="Arial" >score p10=3785</tspan></text>
	</g>
</g>
<g fill="none" color="black" stroke="currentColor" stroke-width="1.00" stroke-linecap="butt" stroke-linejoin="miter">
	<path stroke='rgb( 86, 180, 233)'  d='M587.6,464.0 L629.8,464.0  '/></g>
	</g>
	<g id="gnuplot_plot_4" ><title>score median=7300</title>
<g fill="none" color="black" stroke="currentColor" stroke-width="1.00" stroke-linecap="butt" stroke-linejoin="miter">
	<g transform="translate(579.3,485.9)" stroke="none" fill="black" font-family="Arial" font-size="12.00"  text-anchor="end">
		<text><tspan font-family="Arial" >score median=7300</tspan></text>
	</g>
</g>
<g fill="none" color="black" stroke="currentColor" stroke-width="1.00" stroke-linecap="butt" stroke-linejoin="miter">
	<path stroke='rgb(230, 159,   0)'  d='M587.6,482.0 L629.8,482.0  '/></g>
	</g>
<g fill="none" color="#FFFFFF" stroke="rgb(230, 159,   0)" stroke-width="2.00" stroke-linecap="butt" stroke-linejoin="miter">
</g>
<g fill="none" color="black" stroke="currentColor" stroke-width="2.00" stroke-linecap="butt" stroke-linejoin="miter">
</g>
<g fill="none" color="black" stroke="black" stroke-width="1.00" stroke-linecap="butt" stroke-linejoin="miter">
</g>
<g fill="none" color="black" stroke="currentColor" stroke-width="1.00" stroke-linecap="butt" stroke-linejoin="miter">
	<path stroke='black'  d='M62.2,18.1 L62.2,428.0 L615.0,428.0 L615.0,18.1 L62.2,18.1 Z  '/></g>
<g fill="none" color="black" stroke="currentColor" stroke-width="1.00" stroke-linecap="butt" stroke-linejoin="miter">
</g>
</g>
</svg>
